lib/svg/heart.svg

<svg xmlns="http://www.w3.org/2000/svg" width="12" height="16" viewBox="0 0 12 16"><path d="M11.2 3c-.52-.63-1.25-.95-2.2-1-.97 0-1.69.42-2.2 1-.51.58-.78.92-.8 1-.02-.08-.28-.42-.8-1-.52-.58-1.17-1-2.2-1-.95.05-1.69.38-2.2 1-.52.61-.78 1.28-.8 2 0 .52.09 1.52.67 2.67C1.25 8.82 3.01 10.61 6 13c2.98-2.39 4.77-4.17 5.34-5.33C11.91 6.51 12 5.5 12 5c-.02-.72-.28-1.39-.8-2.02V3z"/></svg>

<?xml version="1.0" encoding="UTF-8" standalone="no"?>
<svg width="12px" height="16px" viewBox="0 0 12 16" version="1.1" xmlns="http://www.w3.org/2000/svg" xmlns:xlink="http://www.w3.org/1999/xlink">
    <!-- Generator: Sketch 3.8.3 (29802) - http://www.bohemiancoding.com/sketch -->
    <title>heart</title>
    <desc>Created with Sketch.</desc>
    <defs></defs>
    <g id="Octicons" stroke="none" stroke-width="1" fill="none" fill-rule="evenodd">
        <g id="heart" fill="#000000">
            <path d="M11.2,3 C10.68,2.37 9.95,2.05 9,2 C8.03,2 7.31,2.42 6.8,3 C6.29,3.58 6.02,3.92 6,4 C5.98,3.92 5.72,3.58 5.2,3 C4.68,2.42 4.03,2 3,2 C2.05,2.05 1.31,2.38 0.8,3 C0.28,3.61 0.02,4.28 0,5 C0,5.52 0.09,6.52 0.67,7.67 C1.25,8.82 3.01,10.61 6,13 C8.98,10.61 10.77,8.83 11.34,7.67 C11.91,6.51 12,5.5 12,5 C11.98,4.28 11.72,3.61 11.2,2.98 L11.2,3 Z" id="Shape"></path>
        </g>
    </g>
</svg>
